X:1
T:St. Issey, 10.10
T:St. Issey, 10.10
T:English traditional melody
T:Public Domain Courtesy of the Cyber Hymnal™
C:English traditional melody
Z:Public Domain
Z:Courtesy of the Cyber Hymnal™
%%score ( 1 2 ) ( 3 4 )
L:1/8
Q:1/4=110
M:3/4
K:Ab
V:1 treble 
V:2 treble 
V:3 bass 
V:4 bass 
V:1
 ([FA][GB]) [Ac]2 [FB]2 | [FA]2 [CF]2 C2 | ([EA][FB]) [Ac]2 [GB]2 | A6 | (G>A) [FB]2 (cB) | %5
 [FA]2 [DF]2 C2 | (GA) [FB]2 (AG) | F6 |] %8
V:2
 x6 | x4 C2 | x6 | A6 | E2 x/ =E2 x3/2 | x4 C2 | D2 x =E2 x | F6 |] %8
V:3
 [F,C]2 [F,C]2 [B,,D]2 | [F,C]2 [F,A,]2 [A,,F,]2 | ([C,E,][D,B,]) [E,A,]2 [E,B,]2 | [A,,C]6 | %4
 [E,B,]2 [D,B,]2 [C,G,]2 | [D,F,]2 [D,F,]2 [A,,F,]2 | [B,,B,]2 [G,,D]2 (CB,) | [F,,A,]6 |] %8
V:4
 x6 | x6 | x6 | x6 | x6 | x6 | x4 C,2 | x6 |] %8

